Sources/FrostedUI/Resources/Icons.xcassets/dollarSignSlashed20.imageset/dollar-sign-slashed-20.svg

<svg width="20" height="20" viewBox="0 0 20 20" fill="none" xmlns="http://www.w3.org/2000/svg" data-fui-icon="true">
  <path
    d="M10.0118 0C10.426 3.37677e-05 10.7618 0.335807 10.7618 0.75V1.62305C14.3029 1.89749 15.7073 4.10194 15.9796 5.37695C16.0659 5.78189 15.8074 6.18108 15.4025 6.26758C14.9976 6.35387 14.5984 6.09526 14.5118 5.69043C14.3764 5.05604 13.5296 3.38686 10.7618 3.12891V9.37598C11.8672 9.58479 13.0369 9.84532 13.9708 10.3574C14.5438 10.6717 15.0606 11.0959 15.4308 11.6855C15.803 12.2786 15.9962 12.99 15.9962 13.8262C15.9959 15.8504 14.179 18.0846 10.7618 18.3711V19.2471C10.7617 19.6611 10.4259 19.997 10.0118 19.9971C9.59771 19.9971 9.26197 19.6612 9.26184 19.2471V18.373C7.62934 18.2404 6.45194 17.6784 5.62024 16.9648C4.67955 16.1576 4.23381 15.2027 4.03723 14.6025C3.90843 14.209 4.12327 13.7852 4.51672 13.6562C4.91034 13.5274 5.33411 13.7421 5.46301 14.1357C5.60209 14.5603 5.92303 15.248 6.5968 15.8262C7.15405 16.3043 7.9921 16.74 9.26184 16.8652V10.6201C8.15638 10.4113 6.98573 10.1517 6.05188 9.63965C5.47913 9.32549 4.96201 8.90182 4.59192 8.3125C4.21967 7.71956 4.02753 7.008 4.02747 6.17188C4.02747 4.14741 5.84625 1.91329 9.26184 1.62598V0.75C9.26184 0.335786 9.59763 0 10.0118 0ZM10.7618 16.8652C13.4715 16.5968 14.4958 14.8856 14.4962 13.8262C14.4962 13.2275 14.3604 12.8022 14.1603 12.4834C13.958 12.1612 13.6575 11.8968 13.2491 11.6729C12.5891 11.311 11.7368 11.0952 10.7618 10.9023V16.8652ZM9.26184 3.13086C6.55262 3.40006 5.52747 5.11331 5.52747 6.17188C5.52753 6.77048 5.66229 7.19585 5.86243 7.51465C6.06467 7.83668 6.36545 8.10039 6.77356 8.32422C7.4336 8.68616 8.28675 8.89999 9.26184 9.09277V3.13086Z"
    fill="currentColor"
  />
</svg>

<svg xmlns="http://www.w3.org/2000/svg" width="20" height="20" fill="none" data-fui-icon="true" viewBox="0 0 20 20"><path fill="currentColor" d="M10.012 0a.75.75 0 0 1 .75.75v.873c3.54.274 4.945 2.479 5.218 3.754a.751.751 0 0 1-1.468.313c-.136-.634-.982-2.303-3.75-2.561v6.247c1.105.209 2.275.47 3.209.981.573.315 1.09.739 1.46 1.329.372.593.565 1.304.565 2.14 0 2.024-1.817 4.259-5.234 4.545v.876a.75.75 0 0 1-1.5 0v-.874c-1.633-.133-2.81-.695-3.642-1.408a5.33 5.33 0 0 1-1.583-2.363.75.75 0 0 1 1.426-.466c.14.424.46 1.112 1.134 1.69.557.478 1.395.914 2.665 1.04V10.62c-1.106-.209-2.276-.468-3.21-.98-.573-.315-1.09-.738-1.46-1.328-.372-.592-.564-1.304-.565-2.14 0-2.025 1.82-4.259 5.235-4.546V.75a.75.75 0 0 1 .75-.75m.75 16.865c2.71-.268 3.734-1.98 3.734-3.039 0-.599-.136-1.024-.336-1.343-.202-.322-.502-.586-.91-.81-.66-.362-1.513-.578-2.488-.77zm-1.5-13.734c-2.71.27-3.735 1.982-3.735 3.04 0 .6.135 1.025.335 1.344.203.322.503.585.912.81.66.361 1.513.575 2.488.768z"/></svg>
